24x24/apps/org.zulip.Zulip.svg

<svg height="24" width="24" xmlns="http://www.w3.org/2000/svg"><circle cx="12" cy="12.5" opacity=".2" r="10"/><circle cx="12" cy="12" fill="#92d6c1" r="10"/><path d="m7 6.5 1.3 3h4.5l-5.8 6 1.3 3h8.7l-1.3-3h-4.5l5.8-6-1.3-3z" opacity=".1"/><path d="m12 2a10 10 0 0 0 -10 10 10 10 0 0 0 .01.291 10 10 0 0 1 9.99-9.791 10 10 0 0 1 9.99 9.709 10 10 0 0 0 .01-.209 10 10 0 0 0 -10-10z" fill="#f4f4f7" opacity=".2"/><path d="m7 6h8.7l1.3 3h-8.7z" fill="#1b4f2f"/><path d="m7 15 8.7-9 1.3 3-8.7 9z" fill="#207344"/><path d="m7 15h8.7l1.3 3h-8.7z" fill="#219053"/></svg>

<svg height="24" width="24" xmlns="http://www.w3.org/2000/svg">
    <circle cx="12" cy="12.5" opacity=".2" r="10"/>
    <circle cx="12" cy="12" fill="#92d6c1" r="10"/>
    <path d="m7 6.5 1.3 3h4.5l-5.8 6 1.3 3H17l-1.3-3h-4.5l5.8-6-1.3-3z" opacity=".1"/>
    <path d="M12 2A10 10 0 0 0 2 12a10 10 0 0 0 .01.291A10 10 0 0 1 12 2.5a10 10 0 0 1 9.99 9.709A10 10 0 0 0 22 12 10 10 0 0 0 12 2z" fill="#f4f4f7" opacity=".2"/>
    <path d="M7 6h8.7L17 9H8.3z" fill="#1b4f2f"/>
    <path d="m7 15 8.7-9L17 9l-8.7 9z" fill="#207344"/>
    <path d="M7 15h8.7l1.3 3H8.3z" fill="#219053"/>
</svg>
